X: 10133
T: MY LADY'S GOWN HAS GAIRS UPON'T.
Q: "Strathspey time."
%R: strathspey
B: W. Hamilton "Universal Tune-Book" Vol. 1 Glasgow 1844 p.13 #3
S: http://imslp.org/wiki/Hamilton's_Universal_Tune-Book_(Various)
Z: 2016 John Chambers <jc:trillian.mit.edu>
M: C
L: 1/8
K: F
% - - - - - - - - - - - - - - - - - - - - - - - - -
C |\
F>FF>A G>FD>G | F>FA>c d>cA>f |\
F>FF>A G>FD>B | A>c f<d c>A G> |]
B |\
A>Ac>F d>cc>A | A>Ac>F EG/G/ G>B |\
A>Ac>F d>cc>A | A>c f>d c>A G |]
% - - - - - - - - - - - - - - - - - - - - - - - - -

%%sep 1 1 500
%%sep 1 1 500

